X: 1772
T: April's Fool
R: jig
M: 6/8
K: Gmajor
|:D|GG/A/B GAB|E^DE E=DE|GAB d2 B|edB dBA|
GAB G2 B|EE/E/E EDE|BeB dBA|AGF G2:|
|:A|B^AB dB/c/d|e2 g gab|age d2 G|B^AB =AGA|
[1 B^AB dBd|eg/g/g gab|age dBA|AGF G2:|
[2 GAB GAB|E2 E EDE|BeB dBA|AGF G2||

